X:24
T:Quick Step
S:Ashworth's Instructor, p. 36
M:2/4
%%MIDI program 72
%%MIDI transpose 8
L:1/16
K:Bm
fe|d2F2F2 (Bc)|d2F2F2 (Bc)|d2B2 (edcB)|c2F2F2 (fe)|d2F2F2 (Bc)|
d2F2F2 (Bc)|d2B2 dcB^A|B4 B2::c2|d2f2 (defd)|edcB A2Bc|dcB^A BcdB|
A2F2 F4|c2d2 cdec|d2B2B2 (fe)|d2B2 dcB^A|B4 B2:|]

